X: 6
T: Boîte de jazz
C: Christian Josué
M: 9/8
L: 1/8
R: mazurka
K: Am
E A2 B|: "Am"c3 B2A B2A | "G"G2B E2E A2B | "F"c3 B2c "G"d2G | "C"e3-e2d c2B|
"Am"c3 B2A B2A | "G"G2B E2E A2B | "F"c3 B2A "G"G2B |1 "Am"A2-A2E A2B :|2 "Am"A2-A2E A2c||
|: "E"e3 ^d3 B2 =d | "Am"c3 B3 A2G | "F"c3 B2c "G"d2G | "C"e2d c2B c2d |
"E"e3 ^d3 B2 =d | "Am"c3 B3 A2B | "F"c3 B3 "G"G2B |1 "Am"A3-A2E A2c :|2 "Am"A3 z2 |]

